X: 33
T: Ja que li ne si attende
N: Derived from Bus3026-Ja_que_li_ne_si_attende.krn
C: Antoine Busnoys
%%abc-version 2.0
%%abcx-abcm2ps-target-version 5.9.1 (29 Sep 2008)
%%abc-creator hum2abc beta
%%abcx-conversion-date 2019/02/16 20:26:07
%%abc-edited-by Jesse Rodin
%%abc-edited-by Chris Gage 02-10-2015
%%abcx-initial-encoding-date 2015/02/20/
%%humdrum-veritas 3186950761
%%humdrum-veritas-data 2114320631
%%linebreak <none>
%%barnumbers 0
L: 1/4
M: 4/2
Q: 1/2=120
V: 1 clef=treble
V: 2 clef=treble-8
V: 3 clef=bass
K: C
[V:1] C8 | 
[V:2] c6B2 | 
[V:3] C,8- | 
[V:1] E3FG4- | 
[V:2] A3GG4 | 
[V:3] C,8 | 
[V:1] G2A4G2 | 
[V:2] z4c4- | 
[V:3] C,8 | 
[V:1] E2F2G3F | 
[V:2] c2d2e3d | 
[V:3] C,8 | 
[V:1] D2z2A4 | 
[V:2] B4c2d2- | 
[V:3] G,4F,4 | 
[V:1] B4G4 | 
[V:2] d2B4e2- | 
[V:3] G,4E,4 | 
[V:1] c4d2B2- | 
[V:2] edc2B2d2- | 
[V:3] A,4G,4 | 
[V:1] BA^F2^G4 | 
[V:2] dcA2B4 | 
[V:3] F,4E,4 | 
[V:1] A4z4 | 
[V:2] z4e4 | 
[V:3] A,4G,2E,2 | 
[V:1] A4G4 | 
[V:2] d4e4 | 
[V:3] F,3G,E,2G,2 | 
[V:1] d4c2B2- | 
[V:2] d4e3d | 
[V:3] F,2G,2E,4 | 
[V:1] B2A4^G2 | 
[V:2] c2A2B4 | 
[V:3] F,4E,4 | 
[V:1] A6GF | 
[V:2] A2c4d2 | 
[V:3] z4F,4 | 
[V:1] G3AB2c2 | 
[V:2] e6dc | 
[V:3] E,2G,4E,2 | 
[V:1] A2GFE2A2- | 
[V:2] d3ce2c2 | 
[V:3] F,2D,2C,4 | 
[V:1] AGG4^F2 | 
[V:2] d2B2A4 | 
[V:3] z4C4 | 
[V:1] G4z4 | 
[V:2] z2G4d2 | 
[V:3] B,2D4B,2 | 
[V:1] c4B2d2 | 
[V:2] e2f2g4 | 
[V:3] C2A,2G,4 | 
[V:1] c2BAB2G2 | 
[V:2] e2f2g2e2- | 
[V:3] A,4G,4 | 
[V:1] c2c4B2 | 
[V:2] e2c2d4 | 
[V:3] A,4G,4 | 
[V:1] c4z2G2- | 
[V:2] c4e4 | 
[V:3] z4C,4 | 
[V:1] G2F2E2DC | 
[V:2] d4c4 | 
[V:3] B,,4C,4 | 
[V:1] B,3A,C4 | 
[V:2] z4z2g2- | 
[V:3] D,4C,4 | 
[V:1] D4C4 | 
[V:2] g2f2e2dc | 
[V:3] B,,4C,4 | 
[V:1] z4G4 | 
[V:2] B3Ac4 | 
[V:3] D,4C,4 | 
[V:1] A2G3FG2 | 
[V:2] f2e3cc2- | 
[V:3] z4E,4 | 
[V:1] A2G2E4 | 
[V:2] c2B2c4 | 
[V:3] D,4C,4 | 
[V:1] D4z2G2 | 
[V:2] z4G3A | 
[V:3] B,,4E,4 | 
[V:1] F2E2G2F2 | 
[V:2] B2c4A2 | 
[V:3] D,2E,2C,2D,2 | 
[V:1] D4C4 | 
[V:2] B4c4 | 
[V:3] B,,4z4 | 
[V:1] z4E4 | 
[V:2] d4c2A2- | 
[V:3] B,,4C,4 | 
[V:1] F4G4 | 
[V:2] A2B4c2- | 
[V:3] D,4E,4 | 
[V:1] A2A4^G2 | 
[V:2] c2A2B4 | 
[V:3] F,4E,4 | 
[V:1] A3Bc3B | 
[V:2] A4z2A2- | 
[V:3] z2A,2A,3G, | 
[V:1] A2G3FE2 | 
[V:2] A2B2c4 | 
[V:3] F,2E,3D,C,2 | 
[V:1] D2d3cBA | 
[V:2] d3ef2g2- | 
[V:3] B,,3C,D,2E,2- | 
[V:1] G2c4B2 | 
[V:2] g2fed4 | 
[V:3] E,2F,2G,4 | 
[V:1] c8 ]|:  
[V:2] c8 ]|:  
[V:3] C,8 ]|:  
[V:1]  [K:C] [K:clef=treble][M:4/2]B8 | 
[V:2]  [K:C] [K:clef=treble-8][M:4/2]g8 | 
[V:3]  [K:C] [K:clef=bass][M:4/2]G,8 | 
[V:1] c8 | 
[V:2] e8 | 
[V:3] A,8 | 
[V:1] A8 | 
[V:2] f8 | 
[V:3] A,8 | 
[V:1] B8 | 
[V:2] g8 | 
[V:3] G,8 | 
[V:1] G4A4- | 
[V:2] e4f4- | 
[V:3] z4D,4- | 
[V:1] A2G2F2E2 | 
[V:2] f2e2d2c2 | 
[V:3] D,2E,2F,4 | 
[V:1] D8 | 
[V:2] B8- | 
[V:3] G,8- | 
[V:1] z4D4 | 
[V:2] B8 | 
[V:3] G,8- | 
[V:1] D4D4 | 
[V:2] z4B4 | 
[V:3] G,8- | 
[V:1] G8 | 
[V:2] B4B4 | 
[V:3] G,8 | 
[V:1] A4_B4- | 
[V:2] c4_B4 | 
[V:3] F,4G,4 | 
[V:1] B2G2G4- | 
[V:2] G8 | 
[V:3] E,8 | 
[V:1] G4^F4 |[1 
[V:2] A8 | 
[V:3] D,8 | 
[V:1] G8 :|][2 
[V:2] G8 :|]  
[V:3] E,8 :|]  
[V:1] G4z4 | 
[V:2] G4c4 | 
[V:3] E,6F,2 | 
[V:1] G4c4 | 
[V:2] B4e4 | 
[V:3] G,4C,4 | 
[V:1] B4e4- | 
[V:2] d4g4- | 
[V:3] G,8 | 
[V:1] e2d2c4- | 
[V:2] g2f2e4 | 
[V:3] C8 | 
[V:1] c2BcB3A | 
[V:2] d8 | 
[V:3] G,8 | 
[V:1] c8- | 
[V:2] c8- | 
[V:3] z4C,4 | 
[V:1] c8 |]  
[V:2] c8 |]  
[V:3] C,8 |]  



